X: 9770
T:Soldier's Joy
R:hornpipe
N:http://home1.swipnet.se/~w-11382/hnhp0.abc
M:2/4
L:1/16
K:D
dB|"D"AFDF AFDF|A2d2 d2cB|AFDF AFDF|"A7"G2E2 E2FG|!
"D"AFDF AFDF|A2d2 d3e|fafd "A7"egec|"D"d2dc d2:|!
|:de|"D"f2fe fagf|"A7"edcd egfe|"D"f2fe fagf|"A7"edcB A2de|!
"D"f2fd fagf|"A7"edcd egfe|"D"fafd "A7"egec|"D"d2dc d2:|!
|:dA|"D"defg a2gf|"A7"ecef g2fe|"D"defg a2af|"A7"edcB A2Ac|!
"D"defg a2gf|"A7"ecef g2fe|"D"fafd "A7"egec|"D"d2dc d2:|]
